src/images/atlantic-logo.svg

<svg width="78" height="12" viewBox="0 0 78 12" fill="none" xmlns="http://www.w3.org/2000/svg">
<path d="M14.2051 4.77111C13.3396 4.77111 12.6076 5.42746 11.6807 6.68965C11.2552 7.28108 10.7071 8.13217 10.4654 8.4928C10.3284 8.67672 10.2202 8.64787 10.2959 8.44952L10.9379 6.80506L13.2314 0.494061C13.3432 0.234408 12.4272 -0.0793382 12.2614 0.234408V0.266865C11.8683 1.10352 11.1362 1.3776 9.82712 1.33072C8.51804 1.28384 5.88545 0.558974 3.89478 0.558974C1.39924 0.558974 0 2.09525 0 3.9056C0 4.92258 0.667162 5.57892 1.56513 5.54646C1.76477 5.56283 1.96348 5.50544 2.12365 5.38515C2.28381 5.26486 2.39432 5.09002 2.43424 4.89373C2.45368 4.81783 2.45215 4.73809 2.42982 4.66299C2.40749 4.5879 2.36519 4.52028 2.30744 4.46734C2.24969 4.4144 2.17865 4.37813 2.10191 4.3624C2.02516 4.34667 1.94558 4.35207 1.87166 4.37803C0.988121 4.56195 0.685194 3.95249 0.685194 3.48006C0.685194 2.3549 1.64446 1.51824 3.64956 1.51824C4.16526 1.51824 5.17141 1.64086 6.23526 1.75987C4.88291 5.83497 3.51252 9.61074 3.17713 10.5051C3.14564 10.6254 3.08461 10.7358 2.99959 10.8265C2.91458 10.9172 2.80826 10.9852 2.69029 11.0244C2.20704 11.1759 2.05197 11.1903 1.74905 11.266C1.29105 11.3742 1.36678 11.7529 1.68774 11.7384C2.26475 11.706 3.01125 11.6303 3.60268 11.6303C4.32393 11.6303 5.6258 11.6916 5.82415 11.706C6.18477 11.7384 6.23526 11.2949 5.93233 11.2516C5.71956 11.2191 5.36975 11.1614 5.03437 11.1146C4.63768 11.0677 4.51867 10.9018 4.60883 10.5808C4.80717 10.0507 7.13323 3.3286 7.59122 1.92575C8.31248 2.01591 8.92915 2.07722 9.33666 2.10607C10.1769 2.15656 10.9847 2.10607 11.6807 1.59758L9.84154 6.79063L8.22954 11.2372C7.95546 11.9584 8.98685 12.0125 9.21766 11.5726C10.0006 10.008 10.9214 8.51628 11.9692 7.1152C12.64 6.1415 13.2639 5.56089 13.7039 5.56089C14.0393 5.56089 14.234 5.74481 14.234 6.15592C14.234 6.70408 13.9779 7.55516 13.4586 9.00128C12.7771 10.8874 12.5174 11.3886 12.2902 11.4031C12.063 11.4175 11.6194 10.8549 11.3778 10.7936C11.264 10.7593 11.1416 10.7665 11.0326 10.8141C10.9236 10.8617 10.835 10.9464 10.7828 11.0533C10.6602 11.266 10.7395 11.9512 11.7709 11.9981C13.0043 12.0558 14.0537 10.7936 14.7822 8.77409C15.2834 7.4037 15.406 6.70408 15.406 6.20281C15.406 5.22911 14.9516 4.77111 14.2051 4.77111ZM35.0855 11.2949C34.3102 11.1146 34.0036 10.8261 34.0036 10.5195L34.0361 9.88121C34.0361 9.4124 34.3967 2.49194 34.4761 1.45694C34.5374 0.696013 33.6683 0.735682 33.304 1.18286L32.5828 2.10968C31.6956 3.22041 28.129 7.82924 26.3872 9.9894C25.8977 10.5846 25.2521 11.0317 24.5227 11.2805C24.2342 11.3562 24.2631 11.6627 24.584 11.6627C24.8401 11.6627 25.601 11.5726 26.1636 11.5726C26.7262 11.5726 27.7612 11.6158 28.0208 11.6303C28.2805 11.6447 28.3814 11.3562 28.0208 11.2696C27.2996 11.0569 26.9389 10.909 26.9389 10.7215C26.9389 10.534 27.1048 10.2815 27.5015 9.73336C27.8044 9.30781 28.5329 8.34854 29.3407 7.28469H32.8172C32.7414 8.74524 32.6513 10.2815 32.6369 10.5844C32.6385 10.6815 32.6057 10.7761 32.5444 10.8513C32.483 10.9266 32.3969 10.9777 32.3015 10.9956L31.5261 11.2228C31.3133 11.2841 31.2196 11.6807 31.555 11.6663C32.3159 11.6194 32.9542 11.5581 33.2896 11.5581C33.7909 11.5581 34.6419 11.6663 35.0386 11.6807C35.4353 11.6952 35.3776 11.3742 35.0855 11.2949ZM32.9217 5.71596C32.9217 5.99004 32.8893 6.29296 32.8749 6.61392H29.8997C31.2845 4.78554 32.745 2.8706 32.8677 2.68668C32.9903 2.50276 33.1093 2.59652 33.0948 2.73356C33.048 3.40433 32.9722 4.63407 32.9145 5.71596H32.9217ZM19.8634 4.8793C18.5399 4.81799 17.0649 6.35427 16.3653 8.6659C15.6801 10.9018 16.441 11.8286 17.2777 11.8286C17.8872 11.8286 18.9041 11.0388 19.4667 10.1264C19.6651 9.80548 19.5136 9.4701 19.2107 9.80548C18.8284 10.2166 18.3127 10.6566 17.7682 10.552C17.4075 10.4907 17.0685 9.86679 17.6023 8.31609C18.8789 8.25478 20.3827 7.52631 20.765 6.32181C21.0968 5.2832 20.4116 4.89373 19.8634 4.8793ZM20.0004 6.00446C19.6795 6.9457 18.5579 7.73548 17.7501 7.93382C18.5255 5.88185 19.2684 5.33369 19.7408 5.34812C20.0004 5.34812 20.1231 5.64383 20.0004 6.00446ZM39.4527 5.64383H40.6861C40.9602 5.64383 41.0972 5.5681 41.1549 5.36975C41.2631 5.1101 41.2018 4.98749 40.9277 4.98749H39.6943L40.2894 3.40794C40.3651 3.19517 40.2894 3.08698 40.1668 3.08698H39.5285C39.3626 3.08698 39.3013 3.13386 39.2255 3.34663L38.5872 4.99831H37.6135C37.4765 4.99831 37.3683 4.96946 37.2781 5.38057C37.2457 5.57892 37.2781 5.65465 37.4765 5.65465H38.342L36.867 9.50255C36.6333 10.0536 36.4299 10.6171 36.2576 11.1903C36.1674 11.724 36.4884 11.9368 36.8814 11.8611C37.6568 11.724 38.7675 10.9162 39.7665 9.65402C40.0406 9.29339 39.8134 9.06259 39.5393 9.35109C39.1254 9.76157 38.6832 10.1424 38.2158 10.4907C37.8191 10.7503 37.6243 10.5664 37.7614 10.1877L39.4527 5.64383ZM53.171 5.2832C53.2612 5.07043 52.9583 5.00913 52.2586 4.87569C52.0459 4.82881 51.9233 5.05601 51.559 5.81693C51.4075 5.63356 51.2129 5.49052 50.9927 5.40054C50.7725 5.31057 50.5334 5.27645 50.2968 5.30124C49.1861 5.33009 47.8157 6.33263 46.6905 7.86891C45.7926 9.10226 45.5185 9.95334 45.688 10.8657C45.7377 11.1231 45.8761 11.355 46.079 11.521C46.2819 11.6871 46.5366 11.7767 46.7987 11.7745C47.6354 11.8034 48.472 11.0136 49.3231 10.1445L49.8568 9.61074C50.0083 9.45928 50.1454 9.54944 50.0516 9.73336C49.7765 10.2115 49.5483 10.7151 49.37 11.2372C49.2618 11.7709 49.5503 11.9079 49.9614 11.8466C50.7512 11.7421 51.9846 11.01 52.9294 9.70451C53.1999 9.32224 52.9294 9.10947 52.6842 9.39797C52.2715 9.83492 51.8187 10.2322 51.3318 10.5844C50.9207 10.8585 50.7368 10.7828 50.8594 10.4618C50.9207 10.2635 51.1479 9.71532 53.171 5.2832ZM49.6585 9.25012C48.6992 10.1337 47.9239 10.772 47.3902 10.772C47.0295 10.772 46.86 10.6169 46.8276 10.3609C46.7374 9.69008 47.3469 8.67311 47.8481 7.98792C48.7137 6.84833 49.7811 5.90348 50.4627 5.90348C50.9351 5.90348 51.184 6.10183 51.2236 6.39033C51.3138 6.91685 50.4339 8.52886 49.6585 9.22848V9.25012ZM70.7841 4.66653C70.0376 4.66653 69.0351 5.19665 68.0902 6.24608C67.7873 6.60671 68.0145 6.84112 68.303 6.58147C68.6238 6.28796 68.9702 6.02366 69.338 5.79169C69.659 5.59334 69.8717 5.74481 69.778 6.03331C69.7022 6.26411 69.475 6.82669 69.3091 7.20535L68.2741 9.57829C67.9856 10.2491 67.7116 10.9162 67.6502 11.1001C67.5132 11.5726 67.7548 11.8214 68.1371 11.8214C68.8584 11.8214 69.8573 11.2264 70.813 10.1625C71.1159 9.80188 70.8887 9.57107 70.6002 9.82712C70.2459 10.1417 69.8699 10.4309 69.475 10.6926C69.1577 10.8874 68.9269 10.7359 69.0351 10.4474C69.1108 10.2346 69.338 9.74778 69.4894 9.39797L70.5389 7.02504C70.8454 6.32542 71.1952 5.58253 71.2601 5.38418C71.3755 4.92258 71.1483 4.66653 70.7841 4.66653ZM71.6965 0.984515C71.4736 0.970348 71.2539 1.04326 71.0837 1.1879C70.9135 1.33254 70.8061 1.5376 70.7841 1.75987C70.7657 1.86221 70.7686 1.96725 70.7928 2.0684C70.8169 2.16954 70.8617 2.2646 70.9244 2.34759C70.9871 2.43057 71.0662 2.49969 71.1569 2.5506C71.2476 2.60151 71.3478 2.63311 71.4513 2.64341C71.6687 2.65066 71.881 2.57677 72.047 2.43613C72.213 2.29549 72.3207 2.09815 72.3492 1.88248C72.3705 1.78013 72.3701 1.67448 72.3481 1.5723C72.3261 1.47011 72.283 1.37366 72.2215 1.28911C72.16 1.20456 72.0816 1.13379 71.9912 1.08134C71.9008 1.02888 71.8004 0.995905 71.6965 0.984515ZM75.9086 4.89373C74.5707 4.83242 73.139 6.38312 72.4394 8.6659C71.7398 10.9487 72.5007 11.8286 73.3842 11.8286C73.9937 11.8286 75.0107 11.1074 75.6201 10.1264C75.8185 9.80548 75.667 9.4701 75.3605 9.80548C74.9818 10.2166 74.495 10.5953 73.9937 10.5664C73.4924 10.5376 73.139 9.84515 73.7196 8.17905C74.5707 5.77726 75.1621 5.50319 75.4218 5.48516C75.6814 5.46712 76.2116 6.15592 76.5325 6.23166C76.6454 6.2676 76.7675 6.26148 76.8762 6.21441C76.9849 6.16735 77.0729 6.08252 77.1239 5.97561C77.261 5.71596 77.1744 4.95503 75.9086 4.89373ZM67.2716 4.99831H66.0382L66.6297 3.41876C66.709 3.20599 66.6297 3.0978 66.5107 3.0978H65.8687C65.7029 3.0978 65.6415 3.14468 65.5658 3.35745L64.9419 4.99831H63.9538C63.8168 4.99831 63.7122 4.96946 63.6184 5.38057C63.5896 5.57892 63.6365 5.65465 63.8168 5.65465H64.6859L63.2109 9.50255C62.9756 10.053 62.7721 10.6165 62.6015 11.1903C62.5077 11.724 62.8287 11.9368 63.2253 11.8611C64.0007 11.724 65.1114 10.9162 66.1104 9.65402C66.3844 9.29339 66.1572 9.06259 65.8796 9.35109C65.4646 9.76177 65.0211 10.1426 64.5525 10.4907C64.1558 10.7503 63.9574 10.5664 64.0945 10.1877L65.793 5.64383H67.0264C67.3004 5.64383 67.4375 5.5681 67.4988 5.36975C67.6034 5.12092 67.5421 4.99831 67.2716 4.99831ZM44.3356 9.28978C43.9044 9.71839 43.4467 10.1195 42.9652 10.4907C42.5686 10.7503 42.3738 10.5664 42.5109 10.1877L46.2217 0.360628C46.283 0.209164 46.2506 0 46.0378 0C45.3128 0.0445026 44.5906 0.126354 43.874 0.245227C43.7514 0.274077 43.6901 0.457998 43.8271 0.501273L44.6494 0.807807C44.8153 0.869114 44.8333 0.944846 44.7251 1.21892L41.5372 9.50255C41.3018 10.053 41.0984 10.6165 40.9277 11.1903C40.8375 11.724 41.1549 11.9368 41.5516 11.8611C42.3738 11.724 43.5423 10.9162 44.5628 9.59271C44.8369 9.22848 44.6097 9.00128 44.3356 9.28978ZM59.9833 9.31863L60.8813 7.51549C61.3681 6.52737 61.4619 6.07298 61.4619 5.7376C61.4619 5.08486 61.1265 4.74947 60.4413 4.74947C59.482 4.74947 58.7211 5.5104 57.5563 7.15126C57.2353 7.59122 57.0225 7.92661 56.597 8.47476C56.46 8.64426 56.3554 8.62623 56.4311 8.42788L57.0225 6.95291C57.2582 6.44053 57.422 5.89808 57.5094 5.3409C57.5094 4.94782 57.3435 4.7639 56.918 4.7639C56.3986 4.7639 55.7459 5.03798 54.6063 6.4841C54.1952 7.01422 54.6063 7.07553 54.7434 6.90964C54.9706 6.67883 55.4646 6.16314 55.7928 5.87463C56.121 5.58613 56.4131 5.67629 56.2941 6.0261C56.2155 6.30132 56.1191 6.57116 56.0056 6.83391L54.2024 11.2588C53.9572 11.8683 55.1148 12.0053 55.3132 11.5473C55.937 10.1048 57.3038 8.30166 57.8664 7.50107C58.6886 6.32903 59.4027 5.52482 59.9184 5.52482C60.1925 5.52482 60.3151 5.67629 60.3151 5.96479C60.2881 6.21604 60.216 6.46037 60.1023 6.68605L58.8257 9.40879C58.465 10.13 58.1261 10.8982 58.0647 11.0965C57.9133 11.569 58.1729 11.8178 58.5804 11.8178C59.3017 11.8178 60.3006 11.2228 61.2599 10.1589C61.5628 9.79827 61.3356 9.56747 61.0471 9.82351C60.6922 10.1384 60.3163 10.4288 59.922 10.6926C59.5902 10.9054 59.3594 10.7359 59.4676 10.433C59.5433 10.2166 59.8174 9.65402 59.9833 9.31863Z" fill="white"/>
</svg>

<svg fill="none" xmlns="http://www.w3.org/2000/svg" viewBox="0 0 78 12"><defs/><path d="M14.205 4.771c-.865 0-1.597.656-2.524 1.919-.426.591-.974 1.442-1.216 1.803-.137.184-.245.155-.17-.043l.643-1.645L13.23.495c.112-.26-.804-.574-.97-.26v.032c-.393.837-1.125 1.11-2.434 1.064C8.518 1.284 5.885.559 3.895.559 1.399.559 0 2.095 0 3.906c0 1.017.667 1.673 1.565 1.64a.819.819 0 00.87-.652.433.433 0 00-.563-.516C.988 4.562.685 3.952.685 3.48c0-1.125.96-1.962 2.965-1.962.515 0 1.521.123 2.585.242a294.782 294.782 0 01-3.058 8.745.746.746 0 01-.487.52c-.483.15-.638.165-.941.241-.458.108-.382.487-.061.472.577-.032 1.323-.108 1.915-.108.72 0 2.023.062 2.221.076.36.032.411-.411.108-.454-.212-.033-.562-.09-.898-.137-.396-.047-.515-.213-.425-.534.198-.53 2.524-7.252 2.982-8.655.721.09 1.338.151 1.746.18.84.05 1.648 0 2.344-.508L9.84 6.79 8.23 11.237c-.275.721.757.775.988.336a29.443 29.443 0 012.751-4.458c.671-.974 1.295-1.554 1.735-1.554.335 0 .53.184.53.595 0 .548-.256 1.4-.775 2.845-.682 1.886-.942 2.388-1.169 2.402-.227.014-.67-.548-.912-.61a.501.501 0 00-.595.26c-.123.213-.043.898.988.945 1.233.058 2.283-1.204 3.011-3.224.501-1.37.624-2.07.624-2.571 0-.974-.454-1.432-1.2-1.432zm20.88 6.524c-.775-.18-1.081-.469-1.081-.775l.032-.639c0-.469.36-7.39.44-8.424.061-.761-.808-.721-1.172-.274l-.721.927c-.887 1.11-4.454 5.72-6.196 7.88a4.148 4.148 0 01-1.864 1.29c-.289.076-.26.383.061.383.256 0 1.017-.09 1.58-.09.562 0 1.597.043 1.857.057.26.015.36-.274 0-.36-.721-.213-1.082-.361-1.082-.548 0-.188.166-.44.563-.989.302-.425 1.03-1.384 1.839-2.448h3.476c-.076 1.46-.166 2.996-.18 3.3a.412.412 0 01-.336.41l-.775.228c-.213.061-.306.458.029.443.76-.047 1.4-.108 1.735-.108.5 0 1.352.108 1.749.123.396.014.339-.307.047-.386zm-2.163-5.579c0 .274-.033.577-.047.898H29.9c1.385-1.828 2.845-3.743 2.968-3.927.122-.184.241-.09.227.047-.047.67-.123 1.9-.18 2.982h.007zm-13.059-.837c-1.323-.061-2.798 1.475-3.498 3.787-.685 2.236.076 3.163.913 3.163.61 0 1.626-.79 2.189-1.703.198-.32.047-.656-.256-.32-.383.41-.898.85-1.443.746-.36-.061-.7-.685-.166-2.236 1.277-.061 2.78-.79 3.163-1.994.332-1.039-.353-1.428-.902-1.443zM20 6.004c-.32.942-1.442 1.731-2.25 1.93.776-2.052 1.518-2.6 1.99-2.586.26 0 .383.296.26.656zm19.453-.36h1.233c.274 0 .411-.076.469-.274.108-.26.047-.383-.227-.383h-1.234l.595-1.58c.076-.212 0-.32-.122-.32h-.639c-.165 0-.227.047-.303.26l-.638 1.651h-.974c-.136 0-.245-.029-.335.383-.032.198 0 .274.199.274h.865l-1.475 3.848a16.455 16.455 0 00-.61 1.687c-.09.534.231.747.624.671.776-.137 1.886-.945 2.886-2.207.274-.36.046-.591-.228-.303-.414.41-.856.791-1.323 1.14-.397.26-.592.075-.455-.303l1.692-4.544zm13.718-.36c.09-.214-.213-.275-.912-.408-.213-.047-.336.18-.7.94a1.442 1.442 0 00-1.262-.515c-1.11.03-2.481 1.032-3.606 2.568-.898 1.233-1.172 2.084-1.003 2.997a1.121 1.121 0 001.11.909c.837.028 1.674-.761 2.525-1.63l.534-.534c.151-.152.288-.062.195.122a8.567 8.567 0 00-.682 1.504c-.108.534.18.67.591.61.79-.105 2.024-.837 2.968-2.142.27-.383 0-.596-.245-.307a9.599 9.599 0 01-1.352 1.186c-.411.274-.595.199-.473-.122.062-.198.289-.747 2.312-5.179zM49.658 9.25c-.959.884-1.734 1.522-2.268 1.522-.36 0-.53-.155-.562-.411-.09-.67.519-1.688 1.02-2.373.866-1.14 1.933-2.085 2.615-2.085.472 0 .721.199.76.487.09.527-.79 2.139-1.565 2.838v.022zm21.126-4.583c-.746 0-1.749.53-2.694 1.58-.303.36-.076.594.213.334a7.31 7.31 0 011.035-.79c.321-.198.534-.046.44.242-.076.231-.303.794-.469 1.172l-1.035 2.373c-.288.671-.562 1.338-.624 1.522-.137.473.105.721.487.721.721 0 1.72-.595 2.676-1.659.303-.36.076-.59-.213-.335-.354.315-.73.604-1.125.866-.317.194-.548.043-.44-.246.076-.212.303-.7.454-1.049l1.05-2.373c.306-.7.656-1.442.721-1.64.115-.462-.112-.718-.476-.718zm.912-3.682a.862.862 0 00-.912.775.753.753 0 00.667.883.876.876 0 00.898-.76.749.749 0 00-.653-.898zm4.213 3.909c-1.338-.062-2.77 1.49-3.47 3.772-.7 2.283.062 3.163.945 3.163.61 0 1.627-.722 2.236-1.703.198-.32.047-.656-.26-.32-.378.41-.865.79-1.366.76-.502-.028-.855-.72-.274-2.387.85-2.402 1.442-2.676 1.702-2.694.26-.018.79.67 1.11.747a.49.49 0 00.592-.256c.137-.26.05-1.021-1.215-1.082zm-8.637.104h-1.234l.592-1.58c.079-.212 0-.32-.12-.32h-.641c-.166 0-.228.047-.303.26l-.624 1.64h-.988c-.137 0-.242-.029-.336.383-.028.198.018.274.199.274h.869L63.21 9.503c-.235.55-.439 1.114-.61 1.687-.093.534.228.747.624.671.776-.137 1.886-.945 2.885-2.207.274-.36.047-.591-.23-.303-.415.41-.859.792-1.328 1.14-.396.26-.595.075-.458-.303l1.699-4.544h1.233c.274 0 .412-.076.473-.274.104-.25.043-.372-.227-.372zM44.336 9.29c-.432.428-.89.83-1.37 1.2-.397.26-.592.076-.455-.302L46.22.36c.062-.152.03-.361-.183-.361-.725.045-1.447.126-2.164.245-.123.03-.184.213-.047.256l.822.307c.166.061.184.137.076.41l-3.188 8.285c-.235.55-.439 1.114-.61 1.687-.09.534.228.747.625.671.822-.137 1.99-.945 3.01-2.268.275-.365.048-.592-.226-.303zm15.647.029l.898-1.804c.487-.988.58-1.442.58-1.777 0-.653-.334-.989-1.02-.989-.959 0-1.72.761-2.885 2.402-.32.44-.533.776-.959 1.324-.137.17-.242.151-.166-.047l.592-1.475a6.13 6.13 0 00.486-1.612c0-.393-.166-.577-.591-.577-.52 0-1.172.274-2.312 1.72-.41.53 0 .592.137.426.228-.231.722-.747 1.05-1.035.328-.289.62-.199.501.151a6.625 6.625 0 01-.288.808l-1.804 4.425c-.245.61.913.746 1.111.288.624-1.442 1.99-3.245 2.553-4.046.823-1.172 1.537-1.976 2.052-1.976.275 0 .397.151.397.44-.027.251-.099.495-.213.721L58.826 9.41c-.361.721-.7 1.49-.761 1.688-.152.472.108.72.515.72.722 0 1.72-.594 2.68-1.658.303-.36.076-.592-.213-.335-.355.314-.73.605-1.125.869-.332.212-.563.043-.454-.26.075-.216.35-.779.515-1.114z" fill="#fff"/></svg>
